assets/icons/home_green.svg

<svg height="23.925" viewBox="0 0 21.932 23.925" width="21.932" xmlns="http://www.w3.org/2000/svg"><path d="m2 9.85a2.99 2.99 0 0 1 1.217-2.408l8.749-6.442 8.749 6.442a2.99 2.99 0 0 1 1.217 2.408v10.584a2.492 2.492 0 0 1 -2.491 2.491h-3.489a1 1 0 0 1 -1-1v-5.98a.5.5 0 0 0 -.5-.5h-4.978a.5.5 0 0 0 -.5.5v5.98a1 1 0 0 1 -1 1h-3.483a2.492 2.492 0 0 1 -2.491-2.491z" fill="none" stroke="#29c66f" stroke-linecap="round" stroke-linejoin="round" stroke-width="2" transform="translate(-1)"/></svg>

<svg xmlns="http://www.w3.org/2000/svg" width="21.932" height="23.925" viewBox="0 0 21.932 23.925">
  <path id="Home" d="M2,9.85A2.99,2.99,0,0,1,3.217,7.442L11.966,1l8.749,6.442A2.99,2.99,0,0,1,21.932,9.85V20.434a2.492,2.492,0,0,1-2.491,2.491H15.952a1,1,0,0,1-1-1v-5.98a.5.5,0,0,0-.5-.5H9.474a.5.5,0,0,0-.5.5v5.98a1,1,0,0,1-1,1H4.491A2.492,2.492,0,0,1,2,20.434Z" transform="translate(-1)" fill="none" stroke="#29c66f" stroke-linecap="round" stroke-linejoin="round" stroke-width="2"/>
</svg>
